app/dist/common/images/essentra-plc.svg

<svg fill="none" height="18" viewBox="0 0 18 18" width="18" xmlns="http://www.w3.org/2000/svg"><path d="m0 0h18v18h-18z" fill="#f0f3fa"/><g clip-rule="evenodd" fill-rule="evenodd"><path d="m4 4h4.99998c2.76142 0 5.00002 2.23857 5.00002 5v-5h-5.00002c-2.76141 0-4.99998 2.23857-4.99998 5z" fill="#a60610"/><path d="m14 9v5h-10v-5c0 2.7614 2.23857 5 4.99998 5 2.76142 0 5.00002-2.2386 5.00002-5z" fill="#9a0058"/><path d="m8.99998 14c-2.76143 0-4.99998-2.2386-4.99998-5.00002 0-2.76141 2.23855-4.99996 4.99998-4.99998v2h-2.99998v2h2.99998v2h-2.99998v2h2.99998z" fill="#dc0814"/></g></svg>

<!-- by TradingView --><svg width="18" height="18" viewBox="0 0 18 18" fill="none" xmlns="http://www.w3.org/2000/svg">
<rect width="18" height="18" fill="#F0F3FA"/>
<path fill-rule="evenodd" clip-rule="evenodd" d="M4 4H8.99998C11.7614 4 14 6.23857 14 9H14V4H8.99998C6.23857 4 4 6.23857 4 9V4Z" fill="#A60610"/>
<path fill-rule="evenodd" clip-rule="evenodd" d="M14 9H14V14H4V9C4 11.7614 6.23857 14 8.99998 14C11.7614 14 14 11.7614 14 9Z" fill="#9A0058"/>
<path fill-rule="evenodd" clip-rule="evenodd" d="M8.99998 14C6.23855 14 4 11.7614 4 8.99998C4 6.23857 6.23855 4.00002 8.99998 4V6H6V8H8.99998V10H6V12H8.99998V14Z" fill="#DC0814"/>
</svg>
